svg/UnitedNations-Flags/flag-kosovo.svg

<?xml version="1.0" encoding="UTF-8" standalone="no"?>
<svg height="256" id="svg2630" inkscape:output_extension="org.inkscape.output.svg.inkscape" inkscape:version="0.46" sodipodi:docname="Flag_of_Kosovo.svg" sodipodi:version="0.32" version="1.0" width="256" xmlns="http://www.w3.org/2000/svg" xmlns:cc="http://creativecommons.org/ns#" xmlns:dc="http://purl.org/dc/elements/1.1/" xmlns:inkscape="http://www.inkscape.org/namespaces/inkscape" xmlns:rdf="http://www.w3.org/1999/02/22-rdf-syntax-ns#" xmlns:sodipodi="http://sodipodi.sourceforge.net/DTD/sodipodi-0.dtd" xmlns:svg="http://www.w3.org/2000/svg" xmlns:xlink="http://www.w3.org/1999/xlink">
  <metadata>
    <rdf:RDF xmlns:cc="http://web.resource.org/cc/" xmlns:dc="http://purl.org/dc/elements/1.1/" xmlns:rdf="http://www.w3.org/1999/02/22-rdf-syntax-ns#">
      <cc:Work rdf:about="">
        <dc:title></dc:title>
        <dc:description></dc:description>
        <dc:subject>
          <rdf:Bag>
            <rdf:li>unsorted</rdf:li>
          </rdf:Bag>
        </dc:subject>
        <dc:publisher>
          <cc:Agent rdf:about="http://www.openclipart.org/">
            <dc:title>Open Clip Art Library, Source: Wikimedia Commons, Source: Wikimedia Commons, Source: Wikimedia Commons, Source: Wikimedia Commons</dc:title>
          </cc:Agent>
        </dc:publisher>
        <dc:creator>
          <cc:Agent>
            <dc:title></dc:title>
          </cc:Agent>
        </dc:creator>
        <dc:rights>
          <cc:Agent>
            <dc:title></dc:title>
          </cc:Agent>
        </dc:rights>
        <dc:date></dc:date>
        <dc:format>image/svg+xml</dc:format>
        <dc:type rdf:resource="http://purl.org/dc/dcmitype/StillImage"/>
        <cc:license rdf:resource="http://en.wikipedia.org/wiki/Public_domain"/>
        <dc:language>en</dc:language>
      </cc:Work>
    </rdf:RDF>
  </metadata>
  <defs id="defs2648">
    <inkscape:perspective id="perspective2652" inkscape:persp3d-origin="420 : 200 : 1" inkscape:vp_x="0 : 300 : 1" inkscape:vp_y="0 : 1000 : 0" inkscape:vp_z="840 : 300 : 1" sodipodi:type="inkscape:persp3d"/>
  </defs>
  <sodipodi:namedview bordercolor="#666666" borderopacity="1.0" gridtolerance="10.0" guidetolerance="10.0" id="base" inkscape:current-layer="svg2630" inkscape:cx="420" inkscape:cy="300" inkscape:pageopacity="0.0" inkscape:pageshadow="2" inkscape:window-height="765" inkscape:window-width="855" inkscape:window-x="0" inkscape:window-y="139" inkscape:zoom="0.66547619" objecttolerance="10.0" pagecolor="#ffffff" showgrid="false"/>
  <rect height="182.85715" id="rect2632" style="fill:#244aa5" width="256" x="0" y="36.142853"/>
  <path d="M 129.38397,94.08869 C 130.45503,95.3387 131.17212,96.58774 131.17212,98.10698 C 130.27283,98.55158 129.03031,98.73313 128.31323,99.53659 C 132.7784,98.91012 133.66791,104.08781 138.66861,102.12299 C 138.85017,102.84008 139.56725,103.4659 140.45644,103.19536 L 140.99197,101.76934 C 142.95223,101.23381 142.41669,104.44635 144.5673,103.82021 C 145.63902,104.71429 144.92194,106.22995 145.63902,107.30558 C 145.63902,108.55331 146.17488,109.62437 146.70976,110.69512 C 147.24562,110.07353 147.59928,109.17945 148.85157,109.44738 C 149.74108,110.42751 150.45817,111.32159 150.63907,112.39233 C 150.27629,114.44809 149.74076,116.23135 151.88257,117.30209 L 151.88257,117.92824 C 153.31674,118.55439 156.52962,117.30209 156.52962,119.80244 C 156.34741,120.69652 157.4188,119.89338 157.78191,120.42859 C 158.67142,120.07005 159.92372,120.25193 160.99446,120.25193 C 161.88397,122.12613 159.92372,123.46448 159.38818,125.16169 C 160.27737,126.0512 159.92372,127.66204 159.74217,128.72789 L 159.20631,128.99582 C 160.63102,129.26343 162.41885,128.82372 163.6718,129.62686 L 165.99516,130.51605 C 167.0659,129.89479 168.3094,129.79929 169.74324,129.89479 C 170.81431,130.69825 169.38014,132.0366 170.2791,132.65818 C 171.53172,132.65818 172.60247,132.84006 172.77456,133.91113 L 172.95612,134.26478 C 173.84563,132.65818 176.35055,133.72892 177.42161,132.57246 C 179.20944,132.57246 179.5631,134.53271 180.45228,135.60378 C 180.81572,138.3763 177.42161,139.62924 178.49236,142.39231 C 177.77527,143.73065 176.35055,144.80204 175.2798,146.05434 C 175.63346,146.23589 175.45158,146.67593 175.45158,146.94353 C 174.38084,147.57489 175.2798,149.44877 173.84531,149.62152 C 173.67321,150.78744 171.5314,150.33828 172.23903,151.59058 C 173.67288,153.46478 171.5314,154.6219 171.5314,156.32368 C 170.63243,157.30837 168.8446,155.42471 168.8446,157.30837 C 167.77354,157.57597 166.7028,156.32368 165.99516,157.39474 C 165.63205,158.64736 166.7028,159.08707 166.53069,160.33969 C 168.3094,160.15781 168.84493,161.94596 169.56202,163.01703 L 171.34985,164.80486 C 169.56202,166.22958 167.23833,164.62298 165.0962,165.42612 C 164.56066,165.15851 165.0962,164.45088 164.56066,164.18327 C 164.02513,163.55191 162.95439,163.55191 162.0652,163.37948 C 162.2373,164.18327 160.63102,164.45055 161.34811,165.42579 C 161.34811,165.69339 161.70177,166.49686 160.99413,166.49686 C 159.55996,166.94634 159.74184,165.25401 158.48889,165.87527 C 156.88262,166.49686 158.13524,168.90659 155.81188,168.63866 C 156.16553,170.79025 152.24535,172.21497 154.92236,174.08918 C 155.27602,174.44315 155.09446,175.15992 155.09446,175.69545 C 153.48786,177.12962 150.6381,176.59442 148.85059,176.05856 C 147.41642,175.69545 148.31506,173.9073 147.77985,172.93206 C 147.24432,172.03342 145.63804,171.41183 145.63804,170.15921 C 144.56633,169.71886 143.66834,169.44278 142.95125,168.55261 C 140.45579,170.96235 137.41599,173.28571 133.84848,173.37176 C 132.24221,174.1749 131.34357,177.39755 128.84778,176.05823 C 127.86765,177.66516 124.91782,176.05823 124.74083,178.37279 C 123.57915,178.82195 124.11468,180.34217 123.40249,181.04981 C 123.13456,182.83764 123.40249,184.35786 124.91782,185.42925 C 125.54397,186.7676 123.57915,186.7676 124.38229,188.02054 C 124.56417,188.46057 124.38229,189.09128 124.11468,189.27284 C 123.57915,189.54044 123.40249,189.80869 123.57915,190.3439 C 123.13456,190.3439 122.95333,190.61151 122.59902,190.96516 C 122.14954,191.85467 120.72482,192.30383 119.74013,192.92542 C 118.76,193.19302 118.04291,192.48539 117.42133,191.85467 C 117.23945,192.83937 116.43664,193.3749 115.45651,193.3749 C 114.0269,193.3749 114.29483,192.12228 113.22377,191.58707 C 113.66836,189.98047 112.23907,189.27284 112.68823,187.83866 C 113.84958,186.94948 115.81017,186.31844 115.27463,184.44456 C 114.0269,182.93346 114.47149,180.69615 113.22377,178.90832 C 112.42063,178.20069 111.08196,177.12995 111.52655,175.42785 C 112.68823,174.0895 111.52655,172.4829 110.9004,171.05818 C 110.6328,169.89193 109.92027,168.8212 109.92027,167.4822 C 107.95546,166.32541 107.86452,163.28463 105.09656,163.01703 C 103.13175,163.01703 102.77776,160.52124 100.81295,160.69334 C 100.63139,160.33969 100.1868,160.07208 99.828258,159.7181 C 98.403535,160.69334 96.615707,159.4505 94.832116,159.8902 C 93.670437,157.92995 95.812245,155.25261 92.685745,154.08604 L 92.685745,152.8432 C 93.044288,153.01497 93.221278,152.66099 93.311893,152.47977 C 93.488884,151.14109 91.079147,150.96899 92.064162,149.44844 C 91.528628,148.99928 90.902482,148.8174 91.261026,147.92822 C 89.91779,145.16483 85.901778,145.43276 85.007701,142.65991 C 85.724788,142.03865 85.724788,141.40729 85.992719,140.87209 C 85.366245,139.80102 85.18958,138.6439 85.366245,137.48711 C 85.992719,137.30523 86.346371,136.50242 86.704914,135.87106 C 85.901778,135.33585 84.921326,134.53271 84.027575,134.80031 C 82.4213,134.53271 81.259294,133.28954 79.83001,132.57246 C 79.471467,132.21847 79.653346,131.58776 79.653346,131.14773 C 81.617838,130.51637 79.38574,127.74842 81.795151,128.10729 C 82.421626,127.30415 83.75997,127.03622 84.740425,126.41007 C 85.725114,126.23341 86.528253,126.59163 87.508379,126.85956 C 88.311515,127.92573 89.741126,127.48114 90.543939,128.37489 C 91.347075,128.19334 92.332093,127.74842 93.312219,128.19334 C 93.312219,126.67768 94.024744,125.7836 95.100047,124.71253 C 95.277038,124.09095 96.257164,123.64179 97.0603,123.28781 C 98.580852,123.64179 100.36412,123.64179 101.43975,122.57072 C 102.15227,123.01988 102.77842,122.12613 103.58155,122.12613 C 104.56136,121.94458 105.36482,122.21218 106.0819,122.66167 C 106.16796,120.87351 109.29445,122.39373 109.92093,120.25193 C 110.63345,118.82231 107.95611,118.28711 108.13277,117.03449 C 107.68818,115.60488 108.75925,114.89268 109.29445,113.91255 C 109.9206,113.64462 110.63312,113.28641 111.43626,113.46307 C 113.49202,112.75055 111.88542,108.55331 115.18923,110.07353 C 115.18923,110.51845 115.00768,111.05366 115.27529,111.1446 C 116.43696,111.1446 116.61526,109.80462 117.42198,109.35677 C 117.77564,108.10904 116.97282,106.58882 118.04357,105.60836 C 118.5791,105.51775 119.02826,105.34076 119.38224,104.89128 C 119.38224,103.91115 118.8467,103.37594 118.04357,102.74947 C 117.77596,103.19569 117.06344,102.84041 116.61526,103.0174 C 116.61526,101.94633 115.99237,101.23413 115.81082,100.24912 C 115.27529,99.98151 115.00768,99.53692 115.18923,98.91045 C 115.99237,98.10731 115.18923,96.14249 117.06344,96.58806 C 117.77596,95.9655 119.02826,96.41009 119.74078,95.33903 C 121.61499,94.26828 124.11501,94.26828 125.54462,92.30347 C 126.17077,92.39408 126.88329,91.76793 127.50944,92.30347 C 127.68675,93.46482 129.38397,93.01534 129.38397,94.08869" id="path2634" style="fill:#d0a650"/>
  <path d="M 74.134181,93.4627 L 67.511887,88.80525 L 60.891267,93.46491 L 63.440155,85.95472 L 56.7968,81.32521 L 64.994402,81.34112 L 67.509208,73.82027 L 70.026709,81.34029 L 78.224305,81.32167 L 71.582604,85.95339 L 74.134181,93.4627 z" id="star" style="fill:#ffffff"/>
  <use height="600" id="use2637" transform="translate(22.321676,-7.1427)" width="840" x="0" xlink:href="#star" y="0"/>
  <use height="600" id="use2639" transform="translate(72.233448,-12.05516)" width="840" x="0" xlink:href="#star" y="0"/>
  <use height="600" id="use2641" transform="translate(96.338286,-7.1427)" width="840" x="0" xlink:href="#star" y="0"/>
  <use height="600" id="use2643" transform="translate(46.068419,-12.05516)" width="840" x="0" xlink:href="#star" y="0"/>
  <use height="600" id="use2645" transform="translate(120.9789,0)" width="840" x="0" xlink:href="#star" y="0"/>
</svg>

<svg xmlns="http://www.w3.org/2000/svg" xmlns:xlink="http://www.w3.org/1999/xlink" viewBox="0 0 256 256"><path fill="#244aa5" d="m0 36.14h256v182.86h-256z"/><path d="m129.38 94.09c1.071 1.25 1.788 2.499 1.788 4.02-.899.445-2.142.626-2.859 1.43 4.465-.626 5.355 4.551 10.355 2.586.182.717.899 1.343 1.788 1.072l.536-1.426c1.96-.536 1.425 2.677 3.575 2.051 1.072.894.355 2.41 1.072 3.485 0 1.248.536 2.319 1.071 3.39.536-.622.89-1.516 2.142-1.248.89.98 1.607 1.874 1.787 2.945-.363 2.056-.898 3.839 1.243 4.91v.626c1.434.626 4.647-.626 4.647 1.874-.182.894.889.091 1.252.626.89-.359 2.142-.177 3.213-.177.89 1.874-1.071 3.213-1.606 4.91.889.89.536 2.5.354 3.566l-.536.268c1.425.268 3.213-.172 4.465.631l2.323.889c1.071-.621 2.314-.717 3.748-.621 1.071.803-.363 2.142.536 2.763 1.253 0 2.323.182 2.495 1.253l.182.354c.89-1.607 3.394-.536 4.465-1.692 1.788 0 2.141 1.96 3.03 3.03.363 2.773-3.03 4.03-1.96 6.789-.717 1.338-2.142 2.41-3.213 3.662.354.182.172.622.172.889-1.071.631-.172 2.505-1.606 2.678-.172 1.166-2.314.717-1.606 1.969 1.434 1.874-.708 3.03-.708 4.733-.899.985-2.687-.899-2.687.985-1.071.268-2.142-.985-2.849.086-.363 1.253.708 1.692.536 2.945 1.779-.182 2.314 1.606 3.03 2.677l1.788 1.788c-1.788 1.425-4.112-.182-6.254.621-.536-.268 0-.975-.536-1.243-.536-.631-1.606-.631-2.495-.804.172.804-1.434 1.071-.717 2.046 0 .268.354 1.071-.354 1.071-1.434.449-1.252-1.243-2.505-.622-1.606.622-.354 3.03-2.677 2.763.354 2.152-3.567 3.576-.89 5.451.354.354.172 1.071.172 1.606-1.607 1.434-4.456.899-6.244.363-1.434-.363-.536-2.151-1.071-3.126-.536-.899-2.142-1.52-2.142-2.773-1.072-.44-1.97-.716-2.687-1.607-2.495 2.41-5.535 4.733-9.103 4.819-1.606.803-2.505 4.03-5 2.686-.98 1.607-3.93 0-4.107 2.315-1.162.449-.626 1.969-1.338 2.677-.268 1.788 0 3.308 1.515 4.379.626 1.338-1.339 1.338-.536 2.591.182.44 0 1.071-.268 1.252-.536.268-.712.536-.536 1.071-.445 0-.626.268-.98.621-.449.89-1.874 1.339-2.859 1.96-.98.268-1.697-.44-2.319-1.071-.182.985-.985 1.52-1.965 1.52-1.43 0-1.162-1.253-2.233-1.788.445-1.607-.985-2.314-.536-3.748 1.161-.889 3.122-1.52 2.586-3.394-1.248-1.511-.803-3.748-2.051-5.536-.803-.708-2.142-1.778-1.697-3.48 1.162-1.338 0-2.945-.626-4.37-.268-1.166-.98-2.237-.98-3.576-1.965-1.157-2.056-4.198-4.824-4.465-1.965 0-2.319-2.496-4.284-2.324-.182-.354-.626-.621-.985-.975-1.425.975-3.213-.268-4.996.172-1.162-1.96.98-4.638-2.146-5.804v-1.243c.359.172.536-.182.626-.363.177-1.339-2.233-1.511-1.248-3.03-.536-.449-1.162-.631-.803-1.52-1.343-2.763-5.359-2.495-6.253-5.268.717-.621.717-1.253.985-1.788-.626-1.071-.803-2.228-.626-3.385.626-.182.98-.985 1.339-1.616-.803-.535-1.784-1.338-2.677-1.071-1.606-.268-2.768-1.511-4.198-2.228-.359-.354-.177-.985-.177-1.425 1.964-.631-.268-3.399 2.142-3.04.626-.803 1.965-1.071 2.945-1.697.985-.177 1.788.182 2.768.449.803 1.066 2.233.622 3.036 1.515.803-.182 1.788-.626 2.768-.182 0-1.516.713-2.41 1.788-3.481.177-.622 1.157-1.071 1.96-1.425 1.521.354 3.304.354 4.379-.717.713.449 1.339-.445 2.142-.445.98-.182 1.783.086 2.5.536.086-1.788 3.213-.268 3.839-2.41.713-1.43-1.965-1.965-1.788-3.217-.445-1.43.626-2.142 1.162-3.122.626-.268 1.339-.626 2.142-.449 2.056-.713.449-4.91 3.753-3.39 0 .445-.182.98.086 1.071 1.162 0 1.34-1.34 2.147-1.788.354-1.248-.449-2.768.622-3.748.536-.091.985-.268 1.339-.717 0-.98-.536-1.515-1.339-2.142-.268.446-.98.091-1.428.268 0-1.071-.623-1.783-.804-2.768-.536-.268-.803-.712-.622-1.339.803-.803 0-2.768 1.874-2.322.713-.623 1.965-.178 2.677-1.249 1.874-1.071 4.374-1.071 5.804-3.036.626.091 1.339-.536 1.965 0 .177 1.161 1.875.712 1.875 1.785" fill="#d0a650"/><path d="m74.13 93.46l-6.622-4.657-6.621 4.66 2.549-7.51-6.643-4.63 8.198.016 2.515-7.521 2.518 7.52 8.198-.019-6.642 4.632 2.552 7.509" id="0" fill="#fff"/><use height="600" transform="translate(22.322-7.143)" width="840" xlink:href="#0"/><use height="600" transform="translate(72.23-12.06)" width="840" xlink:href="#0"/><use height="600" transform="translate(96.34-7.143)" width="840" xlink:href="#0"/><use height="600" transform="translate(46.07-12.06)" width="840" xlink:href="#0"/><use height="600" transform="translate(120.98)" width="840" xlink:href="#0"/></svg>
